app/client/src/assets/icons/blueprintjs/20px/drag-handle-horizontal.svg

<svg xmlns="http://www.w3.org/2000/svg" xml:space="preserve" viewBox="0 0 20 20"><path fill-rule="evenodd" d="M7.5 11c-.83 0-1.5.67-1.5 1.5S6.67 14 7.5 14 9 13.33 9 12.5 8.33 11 7.5 11zm-5-5C1.67 6 1 6.67 1 7.5S1.67 9 2.5 9 4 8.33 4 7.5 3.33 6 2.5 6zm0 5c-.83 0-1.5.67-1.5 1.5S1.67 14 2.5 14 4 13.33 4 12.5 3.33 11 2.5 11zm15-2c.83 0 1.5-.67 1.5-1.5S18.33 6 17.5 6 16 6.67 16 7.5 16.67 9 17.5 9zm-5 2c-.83 0-1.5.67-1.5 1.5s.67 1.5 1.5 1.5 1.5-.67 1.5-1.5-.67-1.5-1.5-1.5zm5 0c-.83 0-1.5.67-1.5 1.5s.67 1.5 1.5 1.5 1.5-.67 1.5-1.5-.67-1.5-1.5-1.5zm-10-5C6.67 6 6 6.67 6 7.5S6.67 9 7.5 9 9 8.33 9 7.5 8.33 6 7.5 6zm5 0c-.83 0-1.5.67-1.5 1.5S11.67 9 12.5 9 14 8.33 14 7.5 13.33 6 12.5 6z" clip-rule="evenodd"/></svg>

<?xml version="1.0" encoding="utf-8"?>
<!-- Generator: Adobe Illustrator 18.0.0, SVG Export Plug-In . SVG Version: 6.00 Build 0)  -->
<svg version="1.1" id="Layer_1" xmlns="http://www.w3.org/2000/svg" xmlns:xlink="http://www.w3.org/1999/xlink" x="0px" y="0px"
	 viewBox="0 0 20 20" enable-background="new 0 0 20 20" xml:space="preserve">
<g id="drag_handle_horizontal_1_">
	<g>
		<path fill-rule="evenodd" clip-rule="evenodd" d="M7.5,11C6.67,11,6,11.67,6,12.5S6.67,14,7.5,14S9,13.33,9,12.5S8.33,11,7.5,11z
			 M2.5,6C1.67,6,1,6.67,1,7.5S1.67,9,2.5,9S4,8.33,4,7.5S3.33,6,2.5,6z M2.5,11C1.67,11,1,11.67,1,12.5S1.67,14,2.5,14
			S4,13.33,4,12.5S3.33,11,2.5,11z M17.5,9C18.33,9,19,8.33,19,7.5S18.33,6,17.5,6S16,6.67,16,7.5S16.67,9,17.5,9z M12.5,11
			c-0.83,0-1.5,0.67-1.5,1.5s0.67,1.5,1.5,1.5s1.5-0.67,1.5-1.5S13.33,11,12.5,11z M17.5,11c-0.83,0-1.5,0.67-1.5,1.5
			s0.67,1.5,1.5,1.5s1.5-0.67,1.5-1.5S18.33,11,17.5,11z M7.5,6C6.67,6,6,6.67,6,7.5S6.67,9,7.5,9S9,8.33,9,7.5S8.33,6,7.5,6z
			 M12.5,6C11.67,6,11,6.67,11,7.5S11.67,9,12.5,9S14,8.33,14,7.5S13.33,6,12.5,6z"/>
	</g>
</g>
</svg>
